components/2.0/icon/icons/icon-help-22px.svg

<svg width="22" height="22" xmlns="http://www.w3.org/2000/svg"><path d="M11 2c-5 0-9 4-9 9s4 9 9 9 9-4 9-9-4-9-9-9zm1 15h-2v-2h2v2zm0-5v2h-2v-2c0-1 .7-1.8 1.7-2 1-.2 1.3-.2 1.3-1.5 0-.7-.2-1.5-2-1.5-.8 0-1.6.3-2 1-.3.4-.3 1 0 1.7l-2 .7c-.5-1.3-.4-2.6.3-3.6S9.3 5 11 5c3.5 0 4 2.4 4 3.5 0 3-2 3.3-3 3.5z" fill="#3D4752" fill-rule="evenodd"/></svg>

<?xml version="1.0" encoding="UTF-8" standalone="no"?>
<svg width="22px" height="22px" viewBox="0 0 22 22" version="1.1" xmlns="http://www.w3.org/2000/svg" xmlns:xlink="http://www.w3.org/1999/xlink" xmlns:sketch="http://www.bohemiancoding.com/sketch/ns">
    <!-- Generator: Sketch 3.4.4 (17249) - http://www.bohemiancoding.com/sketch -->
    <title>icon-help-22px</title>
    <desc>Created with Sketch.</desc>
    <defs></defs>
    <g id="22px" stroke="none" stroke-width="1" fill="none" fill-rule="evenodd" sketch:type="MSPage">
        <g id="icon-help-22px" sketch:type="MSArtboardGroup" fill="#3D4752">
            <path d="M11,2 C6,2 2,6 2,11 C2,16 6,20 11,20 C16,20 20,16 20,11 C20,6 16,2 11,2 L11,2 Z M12,17 L10,17 L10,15 L12,15 L12,17 L12,17 Z M12,12 L12,14 L10,14 L10,12 C10,11 10.7,10.2 11.7,10 C12.7,9.8 13,9.8 13,8.5 C13,7.8 12.8,7 11,7 C10.2,7 9.4,7.3 9,7.9 C8.7,8.4 8.7,8.9 8.9,9.7 L7,10.4 C6.5,9.1 6.6,7.8 7.3,6.8 C8,5.7 9.4,5 10.9,5 C14.5,5 14.9,7.4 14.9,8.5 C15,11.5 13.1,11.8 12,12 L12,12 Z" id="Shape" sketch:type="MSShapeGroup"></path>
        </g>
    </g>
</svg>
